X:724
T:Monroesque
C:Nigel Gatherer
Z:Nigel Gatherer
M:4/4
L:1/8
K:D
E=F | ^FABA =cBA=F | ^FABA =cBA=F | ^FABA =cBAF |
DFA=c- c4 | G2 G2 Bd d2 | =fedB dB=F^F | 
D2 D2 [=c2E2] [BG][A-F-] | [A6F6] B=c | 
^cefe gfe=c | ^cefe gfec | d2 d2 BAFD- | D6 ||
